svgs/sharp-duotone-thin/shirt-tank-top.svg

<svg xmlns="http://www.w3.org/2000/svg" viewBox="0 0 384 512"><!--! Font Awesome Pro 7.1.0 by @fontawesome - https://fontawesome.com License - https://fontawesome.com/license (Commercial License) Copyright 2025 Fonticons, Inc. --><path opacity=".4" fill="currentColor" d="M16 257.5l0 238.5 352 0 0-238.5-47.4-118.6-.6-1.4 0-121.5-32 0 0 64c0 53-43 96-96 96S96 133 96 80l0-64-32 0 0 121.5-.6 1.4-47.4 118.6z"/><path fill="currentColor" d="M48 0l64 0 0 80c0 44.2 35.8 80 80 80s80-35.8 80-80l0-80 64 0 0 134.5 47.4 118.6 .6 1.4 0 257.5-384 0 0-257.5 .6-1.4 47.4-118.6 0-134.5zM192 176c-53 0-96-43-96-96l0-64-32 0 0 121.5-.6 1.4-47.4 118.6 0 238.5 352 0 0-238.5-47.4-118.6-.6-1.4 0-121.5-32 0 0 64c0 53-43 96-96 96z"/></svg>

<svg xmlns="http://www.w3.org/2000/svg" viewBox="0 0 384 512"><!--! Font Awesome Pro 6.7.2 by @fontawesome - https://fontawesome.com License - https://fontawesome.com/license (Commercial License) Copyright 2024 Fonticons, Inc. --><defs><style>.fa-secondary{opacity:.4}</style></defs><path class="fa-secondary" d="M16 257.5L16 496l352 0 0-238.5L320.6 139l-.6-1.4 0-1.5 0-120-32 0 0 64c0 53-43 96-96 96s-96-43-96-96l0-64L64 16l0 120 0 1.5-.6 1.4L16 257.5z"/><path class="fa-primary" d="M48 0l8 0 48 0 8 0 0 8 0 72c0 44.2 35.8 80 80 80s80-35.8 80-80l0-72 0-8 8 0 48 0 8 0 0 8 0 126.5L383.4 253l.6 1.4 0 1.5 0 248 0 8-8 0L8 512l-8 0 0-8L0 256l0-1.5L.6 253 48 134.5 48 8l0-8zM192 176c-53 0-96-43-96-96l0-64L64 16l0 120 0 1.5-.6 1.4L16 257.5 16 496l352 0 0-238.5L320.6 139l-.6-1.4 0-1.5 0-120-32 0 0 64c0 53-43 96-96 96z"/></svg>
